X:1
T:Hor che lungi da voi almo mio sole
T:Lodovico Agostini
T:Hor che lungi da voi almo mio sole
C:Lodovico Agostini
%%score [ 1 2 3 4 ]
L:1/8
Q:1/4=64
M:4/4
K:C
V:1 alto1 nm="Soprano" snm="S"
V:2 alto nm="Alto" snm="A"
V:3 tenor nm="Tenor" snm="T"
V:4 bass nm="Bass" snm="B"
V:1
 z8 | G6 E2 | c4 c2 A2 | B4 c4- | c4 c4 | A4 _B4 | A2 A2 c2 c2- | c2 B2 A4 | A4 G4 | c4 A4 | %10
w: |Hor che|lun- gi da|voi al-|* mo|mio so-|le, In fra te-|* nebr' o-|scur' a-|vol- to|
 d4 B4 | z4 A4- | A4 ^G4 | z8 | E8 | E4 z2 E2 | E4 ^F4 | z2 G2 G4 | A2 A2 F4 | E2 G2 G2 G2- | %20
w: vi- vo,|Pian-|* go,||Pian-|go so-|spi- ro,|so- spi-|ro, so- spi-|ro e in mil- le car-|
 G2 ^F2 G4 | G4 c4 | B2 G2 A2 A2 | B2 c2 c4 | e4 d2 B2 | c4 A4 | ^G4 A4 | A2 F2 F4- | F4 E4 | %29
w: * te scri-|vo, L'al-|ta ca- gion, L'al-|ta ca- gion,|L'al- ta ca-|gion per|cui l'al-|ma si do-|* le,|
 z2 D2 D2 E2 | F4 E4 | z2 A2 G2 E2 | A2 A4 A2 | A2 c4 _B2 | A4 ^F4 | z2 G3 G G2 | A2 B2 c4 | %37
w: Ar- do tra il|giac- cio,|Ar- do tra il|giac- cio an- zi|son den- tro|fuo- co,|Can- di- da|ne- ve fuor|
 _B4 G2 A2 | _B4 A4 | A8 | G6 G2 | F6 D2 | C2 F2 E2 G2- | G2 A3 G/F/ G2 | A4 B4 | c4 z2 B2 | %46
w: guer- ra mi|fan- no,|In-|sie- me|con- giu-|ra- ti a mio sol|_ dan- * * *|no, Il|ciel, le|
 c3 B A4 | A4 G3 F | E4 !fermata!E4 | G2 G4 c2 | cBAG A2 G2 | FGAB c2 A2 | d4 G2 A2 | B4 A2 B2 | %54
w: stel- le, A- mor,|For- tu- na e|Mor- te,|E son gia|fat- * * * * to|ro- * * * * co|Gri- dan- do|pa- ce, Gri-|
 c2 c2 B4 | A2 c4 G2 | z8 | ^F6 G2 | A8- | A4 ^G4 | A4 B2 c2 | d2 d4 c2 | c2 c3 B/A/ B2 | c4 A4- | %64
w: dan- do pa-|ce, pa- ce,||Ai, _|_|* che|pur il mio|mal trop- po|vi pia- * * *|ce, Ai,|
 A4 B4 | z2 c2 _B2 A2- | A2 F2 G2 G2- | GG G2 AGAB | c2 G2 c4- | c4 B2 A2 | B8 |] %71
w: _ Ai,|che pur il|_ mio mal trop-|* po vi pia- * * *|||ce.|
V:2
 z8 | z4 C4- | C2 A,2 F4 | D4 E4 | E4 F4- | F2 F2 D2 G2- | G2 ^F2 G4 | G4 F4- | F2 F2 E2 E2- | %9
w: |Hor|_ che lun-|gi da|voi al-|* mo mio so-|* le, In|fra te-|* nebr' o- scur'|
 E2 C2 F4- | F2 D2 E4- | E2 DC D4 | E8 | z4 D4- | D4 C4 | B,8 | ^C4 z2 D2 | D4 E2 E2 | %18
w: _ a- vol-|* to vi-||vo,|Pian-|* go,|Pian-|go so-|spi- ro, so-|
 A,3 B, C2 D2 | B,3 B, E2 D2 | D4 D4 | E4 E2 G2 | G2 D2 E3 F | G4 A4 | G2 E2 G2 G2 | F2 E2 F4 | %26
w: spi- * * ro e in|mil- le, mil- le|car- te|scri- vo, L'al-|ta ca- gion, _|_ L'al-|ta ca- gion, L'al-|ta ca- gion|
 E4 D2 C2- | C2 C2 B,4 | C8- | C4 B,4 | z2 D2 C2 A,2 | D4 G,2 G2- | GG F2 E2 E2 | ^F2 G2 G3 =F | %34
w: per cui l'al-|* ma si|do-|* le,|Ar- do tra il|giac- cio, Ar-|* do tra il giac- cio an-|zi son den- tro|
 E4 A,4 | z2 E3 E E2 | ^F2 G2 A2 =F2- | F2 D3 E F2- | FE/D/ E2 F4 | F8 | E6 E2 | D4 D2 F2- | %42
w: fuo- co,|Can- di- da|ne- ve fuor guer-|* ra mi fan-|* * * * no,|In-|sie- me|con- giu- ra-|
 F2 C4 E2- | E2 D4 G2- | GF/E/ F2 G2 G2 | A4 z2 G2 | G2 G2 F2 F2- | F2 E4 D2 | B,4 ^C4 | D4 E4 | %50
w: * ti a mio|_ sol dan-|* * * * no, Il|ciel, le|stel- le, A- mor, For-|* tu- na e|Mor- te,|E son|
 E2 F4 E2 | D4 E2 F2- | F2 D3 E F2 | G2 G4 ^F2 | G4 G2 G2 | F2 F2 F2 E2 | D4 D4 | z4 D4- | D4 E4 | %59
w: gia fat- to|ro- co Gri-|* dan- * *|do pa- ce,|pa- ce, Gri-|dan- do pa- ce,|pa- ce,|Ai,|_ Ai,|
 z4 E4- | E2 ^F2 G2 A2- | A2 G2 A2 A2- | AA G2 G4 | G4 F4- | F4 z4 | G4 F4 | E2 D2 E4 | D3 E F4 | %68
w: Ai,|_ che pur il|_ mio mal trop-|* po vi pia-|ce, Ai,|_|che pur|il mio mal|trop- * *|
 G2 C2 G4 | G8- | G8 |] %71
w: po vi pia-|ce.|_|
V:3
 z8 | z8 | z8 | G,6 E,2 | C4 C2 A,2 | C2 D4 D2 | D4 E4 | D2 D2 D4 | C6 C2 | C2 A,4 D2- | %10
w: |||Hor che|lun- gi da|voi al- mo|mio so-|le, In fra|te- nebr'|o- scur' a-|
 D2 B,4 G,2 | A,8 | E,8 | F,8 | E,4 A,4- | A,4 ^G,4 | z2 A,2 A,4 | B,4 z2 C2 | C4 A,4 | %19
w: * vol- to|vi-|vo,|Pian-|go, Pian-|* go|so- spi-|ro, so-|spi- ro e in|
 G,3 G, C2 B,2 | A,4 B,4 | C4 G,2 E2 | D2 B,2 C2 C2 | D2 E2 C2 F2 | E2 C2 D4 | z4 D4 | B,4 A,4- | %27
w: mil- le, mil- le|car- te|scri- vo, L'al-|ta ca- gion, L'al-|ta ca- gion, L'al-|ta ca- gion|per|cui l'al-|
 A,2 A,2 F,4 | G,8 | G,6 G,2 | A,2 B,2 C4 | B,2 A,2 B,2 C2 | D4 ^C3 C | D2 E4 D2 | D2 C2 D4 | %35
w: * ma si|do-|le, Ar-|do tra il giac-|cio, Ar- do tra il|giac- cio an- zi|son den- tro|fuo- * co,|
 z2 C3 C C2 | A,2 G,2 F,4 | _B,4 B,2 A,2 | G,4 F,4 | C8 | C6 C2 | A,2 F,4 _B,2- | B,2 A,2 G,2 C2- | %43
w: Can- di- da|ne- ve fuor|guer- ra mi|fan- no,|In-|sie- me|con- giu- ra-|* ti a mio sol|
 CB, A,2 _B,4 | A,2 D2 D4 | z2 F2 D4 | E4 D4 | A,2 C3 B, A,2- | A,^G,/^F,/ G,2 A,4 | B,4 C2 G,2 | %50
w: _ _ _ dan-|no, Il ciel,|le stel-|le, A- mor,|For- tu- na e Mor-|* * * * te,|E son gia|
 C2 C2 C3 B, | A,G, A,6 | F,2 G,2 D2 ^C2 | D4 D2 D2 | E4 D2 ED | CB, A,2 G,2 C2- | C2 _B,A, B,4 | %57
w: fat- to ro- *||co Gri- dan- do|pa- ce, Gri-|dan- do pa- *|* * * ce, pa-||
 A,8 | z4 A,4 | B,6 B,2 | A,4 G,2 F,2 | _B,4 A,4 | F,2 C2 G,4 | C4 C4 | z4 D4 | E4 D4 | C2 A,2 C4 | %67
w: ce,|Ai,|Ai, che|pur il mio|mal trop-|po vi pia-|ce, Ai,|Ai,|che pur|il mio mal|
 B,4 C2 D2 | E8 | D8- | D8 |] %71
w: trop- po vi|pia-|ce.|_|
V:4
 z8 | z8 | z8 | z4 C,4- | C,2 A,,2 F,4 | F,2 D,2 G,4 | D,4 C,2 E,2 | G,4 D,2 D,2 | F,4 C,4 | %9
w: |||Hor|_ che lun-|gi da voi|al- mo mio|so- le, In|fra te-|
 C,2 F,4 D,2- | D,2 G,2 G,2 E,2 | F,4 F,4 | z8 | D,8 | A,,8 | E,8 | A,,4 z2 D,2 | G,4 C,4 | %18
w: nebr' o- scur'|_ a- vol- to|vi- vo,||Pian-|go,|Pian-|go so-|spi- ro,|
 F,2 F,4 D,2 | E,3 E, C,2 G,,2 | D,4 G,,4 | C,8 | G,,4 A,4 | G,2 E,2 F,4 | z2 C2 B,2 G,2 | %25
w: so- spi- ro e in|mil- le, mil- le|car- te|scri-|vo, L'al-|ta ca- gion,|L'al- ta ca-|
 A,4 D,4 | E,4 F,4- | F,2 F,2 D,4 | C,8 | G,,8 | z4 A,4 | G,2 F,2 E,4 | D,4 A,,4 | D,2 C,4 G,,2 | %34
w: gion per|cui l'al-|* ma si|do-|le,|Ar-|do tra il giac-|cio an- zi|son den- tro|
 A,,4 D,4 | z8 | z8 | z8 | z8 | F,8 | C,6 C,2 | D,4 _B,,4 | F,4 C,4 | E,2 ^F,2 G,4 | D,2 D,2 G,4 | %45
w: fuo- co,|||||In-|sie- me|con- giu-|ra- ti a|mio sol dan-|no, Il ciel,|
 z2 F,2 G,4 | C,4 D,4- | D,2 A,,2 C,2 D,2 | E,4 A,,4 | G,,4 C,4 | A,,2 F,4 C,2 | D,4 A,,2 D,2- | %52
w: le stel-|le, A- mor,|_ For- tu- na e|Mor- te,|E son|gia fat- to|ro- co Gri-|
 D,2 B,4 A,2 | G,4 D,2 D,2 | C,D,E,F, G,2 E,2 | F,4 C,4 | G,8 | D,8 | z8 | E,8 | z8 | z8 | z8 | %63
w: * dan- do|pa- ce, Gri-|dan- * * * * do|pa- ce,|pa-|ce,||Ai,||||
 z4 F,4- | F,4 G,4 | C,4 D,4 | A,,2 D,2 C,4 | G,4 F,2 D,2 | C,8 | G,,8- | G,,8 |] %71
w: Ai,|_ Ai,|che pur|il mio mal|trop- po vi|pia-|ce.|_|

